X:222
T:Polska fr{\aa}n \"Oland
R:sl\"angpolska
H:SvL \"Ol, efter Anders Johan Eriksson, Gl\"omminge
O:\"Oland
Z:id:hn-sp-222
M:3/4
L:1/16
K:C ^f
G4 [e4c4] [e4c4] | dcBA GABc d2dB | G2G2 c2e2 c2e2 | dcBc A2G2 G4 :|
|: g2g2{ag} e2e2 c2eg | bgeg f2d2 d2ef | g2g2 e2e2 c2eg |
bgeg f2d2 d2d2 | cBce gfdf a2g2 | B2GB d2c2 c4 :|
<end>
<start>
